svg/ringsCentralBullseye.svg

<?xml version="1.0" encoding="UTF-8" standalone="no"?>
<!-- Created with Inkscape (http://www.inkscape.org/) -->

<svg
   width="32"
   height="32"
   viewBox="0 0 8.4666666 8.4666668"
   version="1.1"
   id="svg5"
   inkscape:version="1.2 (dc2aeda, 2022-05-15)"
   sodipodi:docname="ringsCentralBullseye.svg"
   xmlns:inkscape="http://www.inkscape.org/namespaces/inkscape"
   xmlns:sodipodi="http://sodipodi.sourceforge.net/DTD/sodipodi-0.dtd"
   xmlns="http://www.w3.org/2000/svg"
   xmlns:svg="http://www.w3.org/2000/svg"
   xmlns:rdf="http://www.w3.org/1999/02/22-rdf-syntax-ns#"
   xmlns:cc="http://creativecommons.org/ns#">
  <sodipodi:namedview
     id="namedview7"
     pagecolor="#ffffff"
     bordercolor="#111111"
     borderopacity="1"
     inkscape:pageshadow="0"
     inkscape:pageopacity="0"
     inkscape:pagecheckerboard="1"
     inkscape:document-units="mm"
     showgrid="true"
     width="32mm"
     units="px"
     objecttolerance="10000"
     guidetolerance="10000"
     inkscape:snap-perpendicular="true"
     inkscape:snap-tangential="true"
     inkscape:zoom="34.90625"
     inkscape:cx="16.014324"
     inkscape:cy="14.997314"
     inkscape:window-width="2560"
     inkscape:window-height="1301"
     inkscape:window-x="0"
     inkscape:window-y="25"
     inkscape:window-maximized="0"
     inkscape:current-layer="layer1"
     gridtolerance="10000"
     inkscape:showpageshadow="0"
     inkscape:deskcolor="#d1d1d1">
    <inkscape:grid
       type="xygrid"
       id="grid9"
       units="px"
       empspacing="2" />
  </sodipodi:namedview>
  <defs
     id="defs2" />
  <g
     inkscape:label="Layer 1"
     inkscape:groupmode="layer"
     id="layer1">
    <path
       id="circle1832"
       style="fill:#000000;stroke-width:0"
       d="M 3.96875 2.6458333 A 1.3229166 1.3229166 0 0 0 2.6458333 3.96875 L 2.6458333 4.4979167 A 1.3229166 1.3229166 0 0 0 3.96875 5.8208333 L 4.4979167 5.8208333 A 1.3229166 1.3229166 0 0 0 5.8208333 4.4979167 L 5.8208333 3.96875 A 1.3229166 1.3229166 0 0 0 4.4979167 2.6458333 L 3.96875 2.6458333 z M 4.2333333 3.175 A 1.0583333 1.0583333 0 0 1 5.2916667 4.2333333 A 1.0583333 1.0583333 0 0 1 4.2333333 5.2916667 A 1.0583333 1.0583333 0 0 1 3.175 4.2333333 A 1.0583333 1.0583333 0 0 1 4.2333333 3.175 z " />
    <path
       id="path1818"
       style="fill:#000000;stroke-width:0"
       d="M 3.175 1.5875 A 1.5874999 1.5874999 0 0 0 1.5875 3.175 L 1.5875 5.2916667 A 1.5874999 1.5874999 0 0 0 3.175 6.8791667 L 5.2916667 6.8791667 A 1.5874999 1.5874999 0 0 0 6.8791667 5.2916667 L 6.8791667 3.175 A 1.5874999 1.5874999 0 0 0 5.2916667 1.5875 L 3.175 1.5875 z M 3.7041667 2.1166667 L 4.7625 2.1166667 A 1.5874999 1.5874999 0 0 1 6.35 3.7041667 L 6.35 4.7625 A 1.5874999 1.5874999 0 0 1 4.7625 6.35 L 3.7041667 6.35 A 1.5874999 1.5874999 0 0 1 2.1166667 4.7625 L 2.1166667 3.7041667 A 1.5874999 1.5874999 0 0 1 3.7041667 2.1166667 z " />
    <path
       id="path1746"
       style="fill:#000000;stroke-width:0"
       d="M 2.6458333 0.52916667 A 2.1166666 2.1166666 0 0 0 0.52916667 2.6458333 L 0.52916667 5.8208333 A 2.1166666 2.1166666 0 0 0 2.6458333 7.9375 L 5.8208333 7.9375 A 2.1166666 2.1166666 0 0 0 7.9375 5.8208333 L 7.9375 2.6458333 A 2.1166666 2.1166666 0 0 0 5.8208333 0.52916667 L 2.6458333 0.52916667 z M 3.175 1.0583333 L 5.2916667 1.0583333 A 2.1166665 2.1166665 0 0 1 7.4083333 3.175 L 7.4083333 5.2916667 A 2.1166665 2.1166665 0 0 1 5.2916667 7.4083333 L 3.175 7.4083333 A 2.1166665 2.1166665 0 0 1 1.0583333 5.2916667 L 1.0583333 3.175 A 2.1166665 2.1166665 0 0 1 3.175 1.0583333 z " />
    <path
       style="fill:#000000;stroke-width:0"
       d="M 4.2333333,3.7041667 A 0.52916663,0.52916663 0 0 0 3.7041667,4.2333333 0.52916663,0.52916663 0 0 0 4.2333333,4.7625 0.52916663,0.52916663 0 0 0 4.7625,4.2333333 0.52916663,0.52916663 0 0 0 4.2333333,3.7041667 Z"
       id="path1826" />
  </g>
  <metadata
     id="metadata33">
    <rdf:RDF>
      <cc:Work
         rdf:about="">
        <cc:license
           rdf:resource="http://creativecommons.org/licenses/by-sa/4.0/" />
      </cc:Work>
      <cc:License
         rdf:about="http://creativecommons.org/licenses/by-sa/4.0/">
        <cc:permits
           rdf:resource="http://creativecommons.org/ns#Reproduction" />
        <cc:permits
           rdf:resource="http://creativecommons.org/ns#Distribution" />
        <cc:requires
           rdf:resource="http://creativecommons.org/ns#Notice" />
        <cc:requires
           rdf:resource="http://creativecommons.org/ns#Attribution" />
        <cc:permits
           rdf:resource="http://creativecommons.org/ns#DerivativeWorks" />
        <cc:requires
           rdf:resource="http://creativecommons.org/ns#ShareAlike" />
      </cc:License>
    </rdf:RDF>
  </metadata>
</svg>

<svg width="32" height="32" viewBox="0 0 8.467 8.467" xmlns="http://www.w3.org/2000/svg"><path style="fill:#000;stroke-width:0" d="M3.969 2.646a1.323 1.323 0 0 0-1.323 1.323v.529A1.323 1.323 0 0 0 3.969 5.82h.529A1.323 1.323 0 0 0 5.82 4.498v-.53a1.323 1.323 0 0 0-1.323-1.322h-.53zm.264.529a1.058 1.058 0 0 1 1.059 1.058 1.058 1.058 0 0 1-1.059 1.059 1.058 1.058 0 0 1-1.058-1.059 1.058 1.058 0 0 1 1.058-1.058z"/><path style="fill:#000;stroke-width:0" d="M3.175 1.587a1.587 1.587 0 0 0-1.587 1.588v2.117a1.587 1.587 0 0 0 1.587 1.587h2.117a1.587 1.587 0 0 0 1.587-1.587V3.175a1.587 1.587 0 0 0-1.587-1.587H3.175zm.53.53h1.058A1.587 1.587 0 0 1 6.35 3.704v1.058A1.587 1.587 0 0 1 4.763 6.35H3.704a1.587 1.587 0 0 1-1.587-1.587V3.704a1.587 1.587 0 0 1 1.587-1.587z"/><path style="fill:#000;stroke-width:0" d="M2.646.53A2.117 2.117 0 0 0 .529 2.645V5.82a2.117 2.117 0 0 0 2.117 2.117H5.82A2.117 2.117 0 0 0 7.938 5.82V2.646A2.117 2.117 0 0 0 5.82.529H2.646zm.529.528h2.117a2.117 2.117 0 0 1 2.116 2.117v2.117a2.117 2.117 0 0 1-2.116 2.116H3.175a2.117 2.117 0 0 1-2.117-2.116V3.175a2.117 2.117 0 0 1 2.117-2.117z"/><path style="fill:#000;stroke-width:0" d="M4.233 3.704a.53.53 0 0 0-.529.53.53.53 0 0 0 .53.529.53.53 0 0 0 .529-.53.53.53 0 0 0-.53-.529Z"/></svg>
